la/palfed.svg

<svg xmlns="http://www.w3.org/2000/svg" viewBox="0 0 32 32" height="1em" width="1em">
  <path d="M 14 4 C 13.45 4 13 4.45 13 5 L 13 6 C 8.582 6 5 7.791 5 10 L 4 10 C 2.9 10 2 10.9 2 12 C 2 13.1 2.9 14 4 14 L 5.375 14 L 6.78125 25.248047 C 6.90625 26.249047 7.756625 27 8.765625 27 L 23.234375 27 C 24.243375 27 25.094703 26.249047 25.220703 25.248047 L 26.625 14 L 28 14 C 29.1 14 30 13.1 30 12 C 30 10.9 29.1 10 28 10 L 27 10 C 27 7.791 23.418 6 19 6 L 19 5 C 19 4.45 18.55 4 18 4 L 14 4 z M 15.328125 8.1875 C 15.708818 8.222793 16.04875 8.505625 16.140625 8.96875 C 19.803625 7.84275 23 9.0180938 23 12.621094 C 23 16.574094 19.085 20.365766 16 19.634766 L 16 24.708984 L 16 24.71875 C 16.01 24.89175 16.058766 25.3525 15.759766 25.6875 C 15.272766 26.2255 14.064109 26.195641 13.912109 24.556641 C 13.704109 22.303641 13.921422 14.098953 13.982422 12.251953 C 12.891422 13.012953 11.015625 14.802563 11.015625 16.101562 C 11.025625 16.228562 11.034922 16.305937 11.044922 16.335938 C 11.054922 16.335938 11.375281 16.197266 11.613281 16.197266 C 12.963281 16.197266 12.663812 18.435547 10.882812 18.435547 C 9.7928125 18.436547 9 17.519859 9 16.255859 C 9 14.124859 11.176375 11.403938 14.109375 9.8359375 C 14.160375 9.2069375 14.261578 8.7192969 14.642578 8.4042969 C 14.855578 8.2329219 15.099709 8.1663242 15.328125 8.1875 z M 18.539062 10.683594 C 17.760469 10.692271 16.903391 10.886031 16.150391 11.160156 C 16.085391 13.159156 16.025 15.256234 16 17.240234 C 16.035 17.382234 16.129906 17.554688 16.753906 17.554688 C 18.591906 17.554688 20.919062 15.382828 20.914062 12.673828 C 20.914063 11.170078 19.836719 10.669131 18.539062 10.683594 z"/>
</svg>

<svg xmlns="http://www.w3.org/2000/svg" viewBox="0 0 32 32" height="1em" width="1em">
  <path d="M14 4c-.55 0-1 .45-1 1v1c-4.418 0-8 1.791-8 4H4c-1.1 0-2 .9-2 2s.9 2 2 2h1.375l1.406 11.248A2 2 0 0 0 8.766 27h14.468c1.01 0 1.86-.751 1.987-1.752L26.625 14H28c1.1 0 2-.9 2-2s-.9-2-2-2h-1c0-2.209-3.582-4-8-4V5c0-.55-.45-1-1-1h-4zm1.328 4.188c.38.035.72.318.813.78C19.804 7.844 23 9.019 23 12.622c0 3.953-3.915 7.745-7 7.014v5.084c.01.173.059.633-.24.968-.487.538-1.696.509-1.848-1.13-.208-2.253.01-10.458.07-12.305-1.09.761-2.966 2.55-2.966 3.85.01.127.019.204.029.234.01 0 .33-.139.568-.139 1.35 0 1.05 2.239-.73 2.239-1.09 0-1.883-.916-1.883-2.18 0-2.131 2.176-4.852 5.11-6.42.05-.63.152-1.117.533-1.432a.949.949 0 0 1 .685-.216zm3.211 2.496c-.779.008-1.636.202-2.389.476a311.237 311.237 0 0 0-.15 6.08c.035.142.13.315.754.315 1.838 0 4.165-2.172 4.16-4.881 0-1.504-1.077-2.005-2.375-1.99z"/>
</svg>
